src/assets/Iconsax_Linear/Used/mouse-square.svg

<svg xmlns="http://www.w3.org/2000/svg" width="32" height="32" viewBox="0 0 24 24" fill="none"><path d="M22 12V9c0-5-2-7-7-7H9C4 2 2 4 2 9v6c0 5 2 7 7 7h3" stroke="#ffffff" stroke-width="1.5" stroke-linecap="round" stroke-linejoin="round"></path><path d="m20.96 17.84-1.63.55c-.45.15-.81.5-.96.96l-.55 1.63c-.47 1.41-2.45 1.38-2.89-.03L13.08 15c-.36-1.18.73-2.28 1.9-1.91l5.96 1.85c1.4.44 1.42 2.43.02 2.9Z" stroke="#ffffff" stroke-width="1.5" stroke-linecap="round" stroke-linejoin="round"></path></svg>

<svg width="24" height="24" viewBox="0 0 24 24" fill="none" xmlns="http://www.w3.org/2000/svg">
<path d="M22 12V9C22 4 20 2 15 2H9C4 2 2 4 2 9V15C2 20 4 22 9 22H12" stroke="#292D32" stroke-width="1.5" stroke-linecap="round" stroke-linejoin="round"/>
<path d="M20.96 17.84L19.33 18.39C18.88 18.54 18.52 18.89 18.37 19.35L17.82 20.98C17.35 22.39 15.37 22.36 14.93 20.95L13.08 15C12.72 13.82 13.81 12.72 14.98 13.09L20.94 14.94C22.34 15.38 22.36 17.37 20.96 17.84Z" stroke="#292D32" stroke-width="1.5" stroke-linecap="round" stroke-linejoin="round"/>
</svg>
